packages/sources/icons/src/vitamix/upload-fill.svg

<svg width="16" height="16" viewBox="0 0 16 16" fill="none" xmlns="http://www.w3.org/2000/svg">
<path d="M2.66683 12.6667H13.3335V8H14.6668V13.3333C14.6668 13.5101 14.5966 13.6797 14.4716 13.8047C14.3465 13.9298 14.177 14 14.0002 14H2.00016C1.82335 14 1.65378 13.9298 1.52876 13.8047C1.40373 13.6797 1.3335 13.5101 1.3335 13.3333V8H2.66683V12.6667Z" fill="#001018"/>
<path d="M10.9513 5.97489L12.9497 5.97489L8 1.02515L3.05025 5.97489L5.04869 5.97487L5.29448 5.97487L7.33311 5.97488L7.33345 10.2832L8.66658 10.2832L8.66624 5.97488L10.7056 5.97489L10.9023 5.97488L10.9513 5.97489Z" fill="#001018"/>
</svg>

<svg width="16" height="16" fill="none" xmlns="http://www.w3.org/2000/svg"><path d="M2.667 12.667h10.666V8h1.334v5.333A.667.667 0 0 1 14 14H2a.666.666 0 0 1-.667-.667V8h1.334v4.667z" fill="#001018"/><path d="M10.951 5.975h1.999L8 1.025l-4.95 4.95h4.284v4.308h1.333V5.975h2.285z" fill="#001018"/></svg>
